X:1
T:Wesley
T:A minor              William Moore, 1810
T:Transcribed from Moore's Columbian Harmony, 1826
T:Isaac Watts, 1706 Longing for His Return       86. 86. (C. M.) 
%%score [ 1 2 3 4 ]
L:1/8
Q:1/4=120
M:4/4
K:C
V:1 treble nm="Tr." snm="Tr."
V:2 treble nm="A." snm="A."
V:3 treble-8 nm="T." snm="T."
V:4 bass nm="B." snm="B."
V:1
"_With  in – ward  pain  my heart-strings sound;  My soul ________ dis – solves  a   –   way; ____                                                                         Dear Sovereign, whirl the" A4 | %1
 e2 ed c2 A2 | B2 BA G2 E2 | (c3 B c2) e2 | d2 cB A4- | A6 z2 |: z8 | z4 z2 e2 | g2 g2 dc B2 | %9
"_seasons round,  And bring,        and   bring _____  the   promised   day,  And  bring ______  the     promised  day.                    promised  day." A2 A2 A2 c2 | %10
 G6 E2 | (A3 B c2) e2 | d2 d2 dc B2 | (c3 B c2) e2 |1 d2 cB A4- | A6 z2 :|2 d2 cB A4- | A8 |] %18
V:2
"_With  in – ward  pain  my heart-strings sound;  My soul ________ dis – solves  a   –   way; ____                                                                         Dear Sovereign, whirl the" E4 | %1
 E2 E2 G2 EF | G2 G2 G2 G2 | (A3 B A2) G2 | F2 E2 E4- | E6 z2 |: z8 | z4 z2 E2 | G2 G2 GA B2 | %9
"_seasons round,  And bring,        and   bring _____  the   promised   day,  And  bring ______  the     promised  day.                    promised  day." A2 A2 E2 E2 | %10
 E6 E2 | (E3 G A2) EF | G2 G2 G2 G2 | (A3 B A2) G2 |1 F2 E2 E4- | E6 z2 :|2 F2 E2 E4- | E8 |] %18
V:3
"_With  in – ward  pain  my heart-strings sound;  My soul ________ dis – solves  a   –   way; ____                                     Dear Sovereign, whirl the seasons round,  Dear" E4 | %1
 A2 BA G2 Bc | d2 dc B2 d2 | (e3 d e2) B2 | A2 A2 A4- | A6 z2 |: z4 z2 c2 | e2 e2 de g2 | %8
 d2 d2 dc B2 | %9
"_Sovereign, whirl the seasons round, And bring, ___  and    bring, ______ and  bring _____   the      promised   day.                     promised  day." c2 c2 cd e2 | %10
 B2 B2 BA G2 | (c3 B A2) c2 | (d3 cBc) d2 | (e3 d e2) B2 |1 A2 A2 A4- | A6 z2 :|2 A2 A2 A4- | A8 |] %18
V:4
"_With  in – ward  pain  my heart-strings sound;  My soul ________ dis – solves  a   –   way; ____   Dear Sovereign, whirl the seasons round,  Dear Sovereign, whirl the" A,,4 | %1
 A,,2 E,2 E,2 E,C, | D,2 G,2 G,2 G,2 | (A,3 G, E,2) E,C, | D,2 E,2 A,4- | A,6 E,2 |: %6
 A,2 A,2 A,2 A,2 | C2 C2 C2 C2 | G,2 G,2 G,2 G,2 | %9
"_seasons round,  And bring,         and    bring ______  the promised day,    And bring ______  the    promised   day. ____  Dear    promised  day.""______________________________________________________________________________________________________\nThis tune was arranged by William Walker in \nSouthern Harmony\n with different words (\nJesus, my all, to heaven is gone\n ) and\n   for three parts; Walker  added a fourth part in 1867.  Walker's three-part arrangement was reprinted in \nThe Sacred Harp\n, \n   p. 53, from 1844 to the present; Walker's Alto part was included in the 1911 edition and following.\nOdd that a tune called Wesley was originally written for words not by either Charles or John Wesley." A,2 A,2 A,2 A,2 | %10
 E,6 E,2 | (A,3 G, A,2) C2 | G,2 G,2 G,2 G,2 | (A,3 G, E,2) E,C, |1 D,2 E,2 A,,4- | A,,6 E,2 :|2 %16
 D,2 E,2 A,,4- | A,,8 |] %18

